X: 21767
T: King Of The Pipers
R: jig
M: 6/8
K: Adorian
|:cAG A3|DED A2B|cAG A2A|DED GED|
cAG A3|DED GED|F2F E2E|DEF GED:|
K:D
d2e faf|ecA ABc|dcd efg|faf gfe|
d2e faf|ecA AGE|F2F E2E|DEF GED:|
B2G A2G|BGE E2=c|B2G AGE|GED D3|
B2G A2G|BGE E2c|dcd ABG|FDD D3:|

